X: 87
T:Mazurca de Adelino Pichel
M:3/4
L:1/16
Q:350
C:Trad
S:Rep. Adelino Pichel
R:Mazurca
K:C
c2B2A2G2A2B2 | c2G2E2C2E2G2 | F2E2F2D2B2,A2| G2F2E2D2C2G2 |
 c2B2A2G2A2B2 | c2G2E2C2E2G2 | F2E2F2D2B,2D2 | C2"F."G2 C6 "F."G2 :|: C3
DE3FD3E |
C3DE3FD3E | C2D2E2F2G2A2 | G4{A} F8 |1 B,2C2D2E2C2D2 | B,2C2D2E2C2D2 |
B,2C2D2E2F2G2 | F4{A} E8 :|2 |: A2G2F2G2A2F2 | G2F2E2F2G2E2 | F2E2D2E2F2
D2 
|1 E4 G8 :|2 C2"F."G2 C8 ||

